usr/share/icons/biglinux-icons-material/16/actions/format-text-direction-rtl.svg

<svg xmlns="http://www.w3.org/2000/svg" viewBox="0 0 16 16"><path d="M2 2v1h7V2H2zm8 0v4h4V2h-4zM7 4v1h2V4H7zM4 7v1h10V7H4zm5 2v1h5V9H9zm-3 3v1h8v-1H6zm-4 1v1h2v-1H2z" style="fill:currentColor;fill-opacity:1;stroke:none;color:#dedede"/></svg>

<svg xmlns="http://www.w3.org/2000/svg" viewBox="0 0 16 16">
  <defs id="defs3051">
    <style type="text/css" id="current-color-scheme">
      .ColorScheme-Text {
        color:#363636;
      }
      </style>
  </defs>
 <path style="fill:currentColor;fill-opacity:1;stroke:none" 
       d="M 2 2 L 2 3 L 9 3 L 9 2 L 2 2 z M 10 2 L 10 6 L 14 6 L 14 2 L 10 2 z M 7 4 L 7 5 L 9 5 L 9 4 L 7 4 z M 4 7 L 4 8 L 14 8 L 14 7 L 4 7 z M 9 9 L 9 10 L 14 10 L 14 9 L 9 9 z M 6 12 L 6 13 L 14 13 L 14 12 L 6 12 z M 2 13 L 2 14 L 4 14 L 4 13 L 2 13 z "
     class="ColorScheme-Text"
     />
</svg>
